docs/img/filter/fridge.svg

<svg width="18" height="20" viewBox="0 0 18 20" fill="none" xmlns="http://www.w3.org/2000/svg">
<path fill-rule="evenodd" clip-rule="evenodd" d="M2 2H16V6H2V2ZM2 8V18H16V8H2ZM0 0H2H16H18V2V18V20H16H2H0V18V2V0ZM3 14L3 10H5V14H3ZM14 5C14.5523 5 15 4.55228 15 4C15 3.44772 14.5523 3 14 3C13.4477 3 13 3.44772 13 4C13 4.55228 13.4477 5 14 5Z" fill="black" fill-opacity="0.9"/>
</svg>

<svg width="18" height="20" fill="none" xmlns="http://www.w3.org/2000/svg"><path fill-rule="evenodd" clip-rule="evenodd" d="M2 2h14v4H2V2zm0 6v10h14V8H2zM0 0h18v20H0V0zm3 14v-4h2v4H3zm11-9a1 1 0 1 0 0-2 1 1 0 0 0 0 2z" fill="#000" fill-opacity=".9"/></svg>
